svgs/thin/square-a.svg

<svg xmlns="http://www.w3.org/2000/svg" viewBox="0 0 448 512"><!--! Font Awesome Pro 6.3.0 by @fontawesome - https://fontawesome.com License - https://fontawesome.com/license (Commercial License) Copyright 2023 Fonticons, Inc. --><path d="M384 32H64C28.65 32 0 60.65 0 96v320c0 35.35 28.65 64 64 64h320c35.35 0 64-28.65 64-64V96C448 60.65 419.3 32 384 32zM432 416c0 26.47-21.53 48-48 48H64c-26.47 0-48-21.53-48-48V96c0-26.47 21.53-48 48-48h320c26.47 0 48 21.53 48 48V416zM231.2 132.4c-2.719-5.406-11.59-5.406-14.31 0l-120 240c-1.969 3.953-.375 8.75 3.578 10.73c4 2 8.75 .375 10.73-3.578L136.9 328h174.1l25.79 51.58C338.3 382.4 341.1 384 344 384c1.203 0 2.422-.2656 3.578-.8438c3.953-1.984 5.547-6.781 3.578-10.73L231.2 132.4zM144.9 312L224 153.9L303.1 312H144.9z"/></svg>

<svg xmlns="http://www.w3.org/2000/svg" viewBox="0 0 448 512"><!-- Font Awesome Pro 6.0.0-alpha2 by @fontawesome - https://fontawesome.com License - https://fontawesome.com/license (Commercial License) --><path d="M384 32H64C28.654 32 0 60.654 0 96V416C0 451.346 28.654 480 64 480H384C419.348 480 448 451.346 448 416V96C448 60.654 419.348 32 384 32ZM432 416C432 442.467 410.467 464 384 464H64C37.533 464 16 442.467 16 416V96C16 69.533 37.533 48 64 48H384C410.467 48 432 69.533 432 96V416ZM231.156 132.422C228.438 127.016 219.562 127.016 216.844 132.422L96.844 372.422C94.875 376.375 96.469 381.172 100.422 383.156C104.422 385.156 109.172 383.531 111.156 379.578L136.945 328H311.055L336.844 379.578C338.25 382.375 341.078 384 344 384C345.203 384 346.422 383.734 347.578 383.156C351.531 381.172 353.125 376.375 351.156 372.422L231.156 132.422ZM144.945 312L224 153.891L303.055 312H144.945Z"/></svg>
